public/assets/images/three.svg

<svg width="34" height="41" viewBox="0 0 34 41" fill="none" xmlns="http://www.w3.org/2000/svg">
<path d="M9.26 19.84V19.6C9.26 19.04 9.34 18.68 9.5 18.52C9.7 18.32 10.08 18.22 10.64 18.22H12.02C15.18 18.22 17.42 17.66 18.74 16.54C20.06 15.38 20.72 13.56 20.72 11.08C20.72 8.44 20.04 6.54 18.68 5.38C17.32 4.22 14.98 3.64 11.66 3.64C8.62 3.64 5.76 4.06 3.08 4.9C2.12 5.18 1.64 4.8 1.64 3.76V3.16C1.64 2.68 1.72 2.34 1.88 2.14C2.08 1.94 2.48 1.74 3.08 1.54C5.36 0.859997 8.22 0.519997 11.66 0.519997C15.98 0.519997 19.12 1.38 21.08 3.1C23.08 4.82 24.08 7.46 24.08 11.02C24.08 15.34 22.18 18.26 18.38 19.78C20.34 20.26 21.88 21.34 23 23.02C24.12 24.66 24.68 26.72 24.68 29.2C24.68 36.76 20.34 40.54 11.66 40.54C8.38 40.54 5.3 40.18 2.42 39.46C1.82 39.3 1.42 39.14 1.22 38.98C1.06 38.78 0.98 38.4 0.98 37.84V37.36C0.98 36.24 1.46 35.84 2.42 36.16C4.94 37 8.02 37.42 11.66 37.42C15.14 37.42 17.62 36.78 19.1 35.5C20.58 34.22 21.32 32.12 21.32 29.2C21.32 23.88 18.22 21.22 12.02 21.22H10.64C10.08 21.22 9.7 21.14 9.5 20.98C9.34 20.78 9.26 20.4 9.26 19.84ZM28.138 37.78C28.018 36.7 28.418 35.94 29.338 35.5C30.258 35.06 31.178 35.06 32.098 35.5C33.018 35.94 33.418 36.7 33.298 37.78C33.298 38.5 33.038 39.12 32.518 39.64C32.038 40.12 31.438 40.36 30.718 40.36C29.998 40.36 29.378 40.12 28.858 39.64C28.378 39.12 28.138 38.5 28.138 37.78Z" fill="url(#paint0_radial_169_2056)"/>
<defs>
<radialGradient id="paint0_radial_169_2056" cx="0" cy="0" r="1" gradientUnits="userSpaceOnUse" gradientTransform="translate(48.2014 48.0908) rotate(-138.382) scale(50.3601 47.3804)">
<stop stop-color="#C6B38A"/>
<stop offset="0.463601" stop-color="#F3C691"/>
<stop offset="1" stop-color="#B4703E"/>
</radialGradient>
</defs>
</svg>

<svg xmlns="http://www.w3.org/2000/svg" width="34" height="41" fill="none" xmlns:v="https://vecta.io/nano"><path d="M9.26 19.84v-.24c0-.56.08-.92.24-1.08.2-.2.58-.3 1.14-.3h1.38c3.16 0 5.4-.56 6.72-1.68 1.32-1.16 1.98-2.98 1.98-5.46 0-2.64-.68-4.54-2.04-5.7s-3.7-1.74-7.02-1.74c-3.04 0-5.9.42-8.58 1.26-.96.28-1.44-.1-1.44-1.14v-.6c0-.48.08-.82.24-1.02.2-.2.6-.4 1.2-.6C5.36.86 8.22.52 11.66.52c4.32 0 7.46.86 9.42 2.58 2 1.72 3 4.36 3 7.92 0 4.32-1.9 7.24-5.7 8.76 1.96.48 3.5 1.56 4.62 3.24 1.12 1.64 1.68 3.7 1.68 6.18 0 7.56-4.34 11.34-13.02 11.34-3.28 0-6.36-.36-9.24-1.08-.6-.16-1-.32-1.2-.48-.16-.2-.24-.58-.24-1.14v-.48c0-1.12.48-1.52 1.44-1.2 2.52.84 5.6 1.26 9.24 1.26 3.48 0 5.96-.64 7.44-1.92s2.22-3.38 2.22-6.3c0-5.32-3.1-7.98-9.3-7.98h-1.38c-.56 0-.94-.08-1.14-.24-.16-.2-.24-.58-.24-1.14zm18.878 17.94c-.12-1.08.28-1.84 1.2-2.28s1.84-.44 2.76 0 1.32 1.2 1.2 2.28c0 .72-.26 1.34-.78 1.86-.48.48-1.08.72-1.8.72s-1.34-.24-1.86-.72c-.48-.52-.72-1.14-.72-1.86z" fill="url(#A)"/><defs><radialGradient id="A" cx="0" cy="0" r="1" gradientUnits="userSpaceOnUse" gradientTransform="translate(48.2014 48.0908) rotate(-138.382) scale(50.3601 47.3804)"><stop stop-color="#c6b38a"/><stop offset=".464" stop-color="#f3c691"/><stop offset="1" stop-color="#b4703e"/></radialGradient></defs></svg>
